pictures/uzcard.svg

<svg width="21" height="30" viewBox="0 0 21 30" fill="none" xmlns="http://www.w3.org/2000/svg">
<g clip-path="url(#clip0_3197_54847)">
<mask id="mask0_3197_54847" style="mask-type:luminance" maskUnits="userSpaceOnUse" x="0" y="0" width="21" height="30">
<path d="M21 0H0V30H21V0Z" fill="white"/>
</mask>
<g mask="url(#mask0_3197_54847)">
<path fill-rule="evenodd" clip-rule="evenodd" d="M20.3301 12.543C20.3301 16.2431 19.4875 18.9947 17.8025 20.798C16.1178 22.5947 13.519 23.4929 10.006 23.4926C6.72765 23.4926 4.24046 22.5944 2.54446 20.798C0.848449 19.0017 0.00111381 16.2922 0.00244297 12.6695V0.514547C0.00270595 0.37773 0.0569689 0.246585 0.153363 0.149794C0.249758 0.053003 0.380439 -0.00155681 0.516827 -0.00195312H6.45963C6.59607 -0.00155737 6.72681 0.0529866 6.82329 0.149763C6.91977 0.24654 6.97413 0.377684 6.97455 0.514547V12.935C6.97455 14.414 7.24719 15.5525 7.80243 16.3556C8.07795 16.7218 8.43315 17.0202 8.84103 17.2278C9.24891 17.4356 9.69867 17.5471 10.156 17.554C10.6134 17.5609 11.0663 17.463 11.4803 17.2677C11.8941 17.0724 12.2582 16.7849 12.5445 16.427C13.0872 15.6734 13.3576 14.5629 13.356 13.0955V10.77H20.3301V12.543Z" fill="white"/>
<path fill-rule="evenodd" clip-rule="evenodd" d="M19.7902 9.41152H13.3564V0.540012C13.3568 0.396698 13.4137 0.259374 13.5148 0.158082C13.6159 0.0567899 13.7529 -0.000224411 13.8957 -0.000488281H14.8587C14.8596 1.45415 15.4363 2.84889 16.462 3.87715C17.4877 4.9054 18.8784 5.48301 20.3285 5.48301V9.41152H19.7902Z" fill="white"/>
<path fill-rule="evenodd" clip-rule="evenodd" d="M16.2286 -0.000488281H19.7899C19.9326 -9.24402e-05 20.0695 0.0569803 20.1704 0.158258C20.2714 0.259536 20.3282 0.396784 20.3287 0.540012V4.11801C19.241 4.11801 18.1978 3.68457 17.4287 2.91305C16.6596 2.14152 16.2275 1.09511 16.2275 0.00401153L16.2286 -0.000488281Z" fill="#F4821F"/>
<path fill-rule="evenodd" clip-rule="evenodd" d="M1.16828 29.3959C1.9553 29.3959 2.33561 28.9559 2.33561 28.3104V26.7549H1.77238V28.2954C1.76785 28.4538 1.70193 28.6043 1.58862 28.7147C1.47531 28.8252 1.32353 28.8869 1.16554 28.8869C1.00754 28.8869 0.855763 28.8252 0.742453 28.7147C0.629143 28.6043 0.56322 28.4538 0.558694 28.2954V26.7549H0.00244141V28.3149C0.00244141 28.9524 0.382248 29.3959 1.16927 29.3959H1.16828ZM5.73493 29.3489V28.8649H4.48834L5.7095 27.1994V26.7559H3.76561V27.2424H4.98677L3.76511 28.9029V29.3489H5.73493ZM8.36613 29.3959C8.58777 29.4009 8.80635 29.3439 8.99745 29.2313C9.18849 29.1185 9.34443 28.9546 9.44775 28.7579L8.97423 28.5284C8.91651 28.6407 8.82933 28.7352 8.72211 28.8016C8.61489 28.868 8.49165 28.9039 8.36565 28.9054C8.14845 28.8936 7.94397 28.7987 7.79433 28.6403C7.64475 28.4818 7.56135 28.2719 7.56135 28.0536C7.56135 27.8354 7.64475 27.6255 7.79433 27.467C7.94397 27.3086 8.14845 27.2137 8.36565 27.2019C8.49153 27.2042 8.61447 27.2405 8.72157 27.3069C8.82861 27.3734 8.91591 27.4674 8.97423 27.5794L9.44877 27.3459C9.34557 27.1493 9.18957 26.9858 8.99835 26.8737C8.80719 26.7616 8.58849 26.7056 8.36715 26.7119C8.01567 26.7065 7.67619 26.8401 7.42209 27.0837C7.16799 27.3274 7.01961 27.6615 7.00911 28.014C6.99855 28.3664 7.12665 28.7089 7.36575 28.9674C7.60485 29.2259 7.93575 29.3796 8.28693 29.3954C8.31381 29.3954 8.34021 29.3954 8.36715 29.3954L8.36613 29.3959ZM13.176 29.3489L12.1792 26.7549H11.4898L10.4895 29.3489H11.1175L11.28 28.9094H12.389L12.548 29.3489H13.176ZM12.238 28.4234H11.431L11.8347 27.3069L12.238 28.4234ZM16.8928 29.9999L15.9458 28.3619C16.1154 28.3208 16.2651 28.2211 16.3685 28.0803C16.472 27.9395 16.5226 27.7665 16.5115 27.5919C16.5156 27.4859 16.4988 27.3801 16.4621 27.2806C16.4254 27.1811 16.3695 27.0898 16.2976 27.012C16.2258 26.9342 16.1393 26.8713 16.0432 26.827C15.9471 26.7827 15.8431 26.7579 15.7375 26.7539C15.7061 26.7519 15.6747 26.7519 15.6433 26.7539H14.4316V29.3479H14.9799V28.4274H15.3831L16.2583 29.9994L16.8928 29.9999ZM15.5601 27.9419H14.9823V27.2419H15.5586C15.6043 27.237 15.6507 27.2414 15.6948 27.2545C15.739 27.2676 15.7802 27.2894 15.816 27.3184C15.8518 27.3475 15.8815 27.3834 15.9035 27.424C15.9255 27.4646 15.9393 27.5092 15.9441 27.5552C15.9489 27.6011 15.9446 27.6476 15.9315 27.6919C15.9185 27.7362 15.8968 27.7775 15.8678 27.8134C15.8388 27.8493 15.803 27.8792 15.7626 27.9012C15.7221 27.9233 15.6776 27.9371 15.6318 27.9419C15.6075 27.9444 15.5829 27.9444 15.5586 27.9419H15.5601ZM18.9589 29.3494C19.7693 29.3494 20.3316 28.8364 20.3316 28.0544C20.3316 27.2724 19.7683 26.7544 18.9589 26.7544H17.9395V29.3484L18.9589 29.3494ZM18.9589 28.8634H18.4898V27.2419H18.9589C19.1589 27.227 19.3565 27.2924 19.5085 27.4236C19.6605 27.5549 19.7542 27.7413 19.7693 27.9419C19.7723 27.979 19.7723 28.0163 19.7693 28.0534C19.7739 28.1555 19.7584 28.2575 19.7236 28.3536C19.6889 28.4496 19.6356 28.5379 19.5668 28.6133C19.498 28.6887 19.4151 28.7497 19.3227 28.7929C19.2304 28.836 19.1304 28.8605 19.0287 28.8649C19.0049 28.8662 18.9811 28.8662 18.9574 28.8649L18.9589 28.8634Z" fill="white"/>
<path fill-rule="evenodd" clip-rule="evenodd" d="M21.0001 26.7064V26.7149C21.0003 26.8106 20.9722 26.9042 20.9194 26.9838C20.8665 27.0635 20.7913 27.1256 20.7032 27.1624C20.6152 27.1991 20.5183 27.2088 20.4247 27.1903C20.3311 27.1717 20.2451 27.1258 20.1776 27.0581C20.1101 26.9906 20.0641 26.9044 20.0455 26.8106C20.0268 26.7168 20.0363 26.6195 20.0727 26.5311C20.1092 26.4427 20.171 26.3671 20.2502 26.314C20.3295 26.2608 20.4227 26.2324 20.5181 26.2324H20.9996L21.0001 26.7064Z" fill="white"/>
</g>
</g>
<defs>
<clipPath id="clip0_3197_54847">
<rect width="21" height="30" fill="white"/>
</clipPath>
</defs>
</svg>

<svg width="21" height="30" fill="none" xmlns="http://www.w3.org/2000/svg"><g clip-path="url(#a)"><mask id="b" style="mask-type:luminance" maskUnits="userSpaceOnUse" x="0" y="0" width="21" height="30"><path d="M21 0H0v30h21V0Z" fill="#fff"/></mask><g mask="url(#b)" fill-rule="evenodd" clip-rule="evenodd"><path d="M20.33 12.543c0 3.7-.842 6.452-2.527 8.255-1.685 1.797-4.284 2.695-7.797 2.695-3.278 0-5.766-.899-7.462-2.695C.848 19.002.001 16.292.002 12.67V.514a.518.518 0 0 1 .515-.517H6.46a.516.516 0 0 1 .515.517v12.42c0 1.479.272 2.617.827 3.42a3.007 3.007 0 0 0 2.354 1.199 2.998 2.998 0 0 0 2.388-1.127c.543-.754.814-1.864.812-3.332V10.77h6.974v1.773Z" fill="#fff"/><path d="M19.79 9.412h-6.434V.54a.543.543 0 0 1 .54-.54h.963c0 1.454.577 2.849 1.603 3.877a5.461 5.461 0 0 0 3.866 1.606v3.929h-.538Z" fill="#fff"/><path d="M16.229 0h3.56a.54.54 0 0 1 .54.54v3.578a4.095 4.095 0 0 1-2.9-1.205A4.12 4.12 0 0 1 16.228.004V0Z" fill="#F4821F"/><path d="M1.168 29.396c.787 0 1.168-.44 1.168-1.086v-1.555h-.564v1.54a.61.61 0 0 1-.606.592.606.606 0 0 1-.607-.592v-1.54H.002v1.56c0 .637.38 1.08 1.167 1.08Zm4.567-.047v-.484H4.488l1.221-1.666v-.443H3.767v.486h1.22l-1.22 1.66v.447h1.969Zm2.631.047a1.19 1.19 0 0 0 1.082-.638l-.474-.23a.695.695 0 0 1-.608.377.85.85 0 0 1-.805-.851.855.855 0 0 1 .805-.852.7.7 0 0 1 .608.377l.475-.233a1.186 1.186 0 0 0-1.082-.634 1.336 1.336 0 0 0-1.358 1.302 1.345 1.345 0 0 0 1.278 1.381h.08Zm4.81-.047-.997-2.594h-.69l-1 2.594h.628l.163-.44h1.109l.159.44h.628Zm-.938-.926h-.807l.404-1.116.403 1.116ZM16.893 30l-.947-1.638a.741.741 0 0 0 .566-.77.81.81 0 0 0-.869-.838h-1.211v2.594h.548v-.92h.403l.875 1.571h.635Zm-1.333-2.058h-.578v-.7h.577a.348.348 0 0 1 .345.182.352.352 0 0 1-.345.518h.001Zm3.399 1.407c.81 0 1.373-.513 1.373-1.295 0-.782-.564-1.3-1.373-1.3h-1.02v2.594l1.02.001Zm0-.486h-.47v-1.621h.47a.755.755 0 0 1 .81.811.779.779 0 0 1-.812.812l.002-.002ZM21 26.706v.009a.485.485 0 0 1-.575.475.481.481 0 0 1-.352-.659.484.484 0 0 1 .445-.299H21v.474Z" fill="#fff"/></g></g><defs><clipPath id="a"><path fill="#fff" d="M0 0h21v30H0z"/></clipPath></defs></svg>
